public/illustrations/_table.svg

<svg width="274" height="210" viewBox="0 0 274 210" fill="none" xmlns="http://www.w3.org/2000/svg">
<path d="M79.4816 162.635C71.3118 161.841 63.4209 161.861 55.6001 161.439C54.9007 164.138 54.6436 166.908 54.6658 169.632C54.429 179.431 54.169 189.091 53.7694 198.773C53.6987 200.938 53.6744 203.382 51.0204 204.685C48.3663 205.987 45.6664 205.288 44.6433 202.587C44.1318 201.237 43.8996 199.84 43.9467 198.397C44.2538 187.294 44.7006 176.168 44.9845 164.926C45.0781 163.762 44.8924 162.645 44.7998 161.225C39.307 160.128 33.7669 160.475 28.4134 160.217C23.0598 159.959 17.7063 159.701 12.3528 159.443C11.025 161.816 11.4198 164.191 11.2327 166.518C10.6701 176.085 10.1076 185.651 9.70791 195.334C9.61433 196.498 9.52082 197.662 9.26435 198.709C9.00788 199.756 8.44882 200.71 7.70368 201.408C6.81887 202.13 5.7248 202.455 4.72389 202.478C3.56009 202.384 2.48949 201.988 1.79149 201.243C0.953827 200.521 0.488627 199.45 0.302868 198.333C0.117109 197.215 -0.0685463 196.098 0.0250341 194.934C0.681499 183.343 1.03544 171.658 1.97124 160.02C2.69631 151.431 1.97818 142.796 3.00581 134.3C4.12703 124.641 6.15599 115.261 11.8388 107.14C16.59 100.322 23.0158 96.67 31.4185 97.1389C34.3048 97.2332 37.0747 97.4903 39.8677 97.8872C46.9666 99.147 51.4338 103.571 54.4805 109.811C57.5272 116.05 58.2693 123.103 58.1268 130.016C58.1244 136.045 57.8426 142.12 57.6772 148.032C57.8398 149.01 57.8627 150.011 58.0484 151.128C60.795 151.246 63.4252 151.526 66.0321 151.667C71.9443 151.832 77.8565 151.997 83.7687 152.163C88.3774 152.258 90.1457 154.26 89.7946 159.055C89.4192 166.294 88.8809 173.416 88.4823 180.515C88.1773 186.451 87.9888 192.223 87.6837 198.159C87.6366 199.602 87.4266 200.929 86.9372 202.302C86.6575 203.209 86.0753 204.024 85.1672 204.605C84.3989 205.164 83.4212 205.326 82.4203 205.349C81.4194 205.372 80.5118 205.092 79.6741 204.37C78.9994 203.765 78.4177 202.857 78.2552 201.879C78.023 200.482 77.7909 199.086 77.838 197.643C78.2609 188.099 78.8465 178.673 79.4322 169.246C79.503 167.081 79.5504 164.777 79.6912 162.17L79.4816 162.635ZM47.4574 151.31C47.7139 150.263 47.8074 149.099 47.9242 148.075C48.0667 141.162 48.4886 134.202 48.3517 127.335C48.3535 123.029 47.5171 118.862 45.8661 114.975C44.0057 110.691 40.9576 107.897 36.023 107.569C34.7196 107.498 33.5326 107.265 32.2291 107.195C26.7359 106.96 22.3126 108.843 19.5175 113.614C18.0965 116.29 16.6986 119.106 15.5802 121.875C12.3879 130.3 12.2681 139.076 12.1713 147.99C12.2874 148.689 12.3802 149.247 12.7757 149.899L47.4574 151.31Z" fill="#102185"/>
<path d="M108.77 147.145C96.1552 142.927 84.776 135.777 75.3294 126.439C75.0497 127.347 74.7932 128.394 74.5368 129.441C74.2096 132.653 74.0221 135.842 73.8346 139.031C73.741 140.195 73.6473 141.359 73.4141 142.546C73.1576 143.593 72.4589 144.57 71.7138 145.268C70.829 145.989 69.7349 146.315 68.734 146.338C67.5934 146.384 66.6393 145.825 65.8016 145.103C64.9639 144.381 64.4989 143.31 64.3364 142.332C64.1274 141.075 64.058 139.795 64.1283 138.492C64.783 131.206 65.4378 123.921 65.9529 116.659C65.9768 115.076 65.7445 113.679 64.9304 112.236C62.2323 107.23 60.3491 101.946 59.2806 96.3824C57.701 88.6074 57.9139 80.3908 60.0817 72.7104C61.4105 67.753 63.484 62.9589 66.0463 58.5141C66.6285 57.6997 66.885 56.6523 67.025 55.7679C67.1657 53.161 67.0272 50.6005 67.3308 48.11C68.1252 40.8015 68.3608 33.5859 70.0396 26.4174C72.115 17.3171 76.727 9.6609 84.457 4.35697C93.7238 -2.06361 110.32 -2.38274 118.299 10.2131C119.881 12.8207 120.95 15.8006 121.321 18.8965L122.064 23.3659C123.391 23.5759 124.671 23.5066 125.952 23.4373C133.959 22.3931 142.153 22.4662 150.113 23.7264C154.232 24.3333 158.142 25.4056 162.146 26.1753C163.193 26.4318 164.357 26.5254 165.544 26.7586C166.43 23.4537 167.222 20.4513 168.178 17.5654C171.861 5.18379 184.898 -0.14127 195.045 2.1905C198.164 2.82023 201.12 4.19475 203.749 6.1976C206.379 8.20045 208.24 10.7616 209.589 13.695C213.194 20.7027 213.447 28.2677 212.838 35.8323C212.23 43.397 211.459 50.8452 210.711 58.433C210.548 60.0391 210.826 61.7151 211.501 63.1818C214.199 68.1873 216.082 73.4719 217.011 79.0586C218.59 88.5561 217.794 98.4483 214.415 107.478C214.113 108.246 213.786 108.875 213.623 109.619C213.67 109.899 213.693 110.038 213.6 110.341C218.162 110.157 219.396 108.947 220.306 104.92C221.845 97.7749 223.523 90.6064 225.668 83.6476C227.672 76.712 232.702 71.5699 239.314 68.1742C244.599 65.4297 249.999 65.9673 255.399 67.3661C259.751 68.5084 263.73 70.8609 267.104 73.8882C272.363 78.7552 273.99 85.0871 273.987 91.9769C274.03 100.007 272.304 107.758 271.324 115.671C270.506 122.84 269.386 129.916 268.405 136.968C268.428 137.969 268.172 139.017 267.753 139.947C265.283 144.09 266.05 148.699 265.769 153.051C265.509 160.989 265.529 168.879 265.293 176.956C265.198 181.565 265.103 186.174 265.008 190.782C265.031 191.783 264.914 192.807 264.658 193.855C264.402 194.902 263.819 195.716 262.911 196.298C262.003 196.88 261.072 197.321 260.048 197.205C259.047 197.228 257.976 196.831 257.278 196.086C256.441 195.364 255.999 194.433 255.836 193.455C255.558 190.057 255.397 186.496 255.398 183.051C255.565 172.832 255.732 162.614 256.016 152.233L255.505 149.16C251.594 151.533 248.055 153.556 244.679 155.696C235.831 161.186 226.984 166.676 218.113 172.026C217.182 172.468 216.297 173.189 215.738 174.143C215.179 175.097 214.783 176.168 214.806 177.168C214.174 185.455 213.542 193.741 212.771 202.05C212.677 203.214 212.584 204.378 212.49 205.542C212.396 206.705 211.861 207.799 210.976 208.52C210.091 209.242 209.02 209.707 207.74 209.776C205.179 209.915 203.62 208.308 203.156 205.515C202.994 204.537 203.11 203.513 203.088 202.512C203.65 193.807 204.352 185.078 205.053 176.35C205.24 174.883 204.822 173.231 204.031 171.927C198.866 165.035 193.841 158.12 188.793 151.065C188.77 150.925 188.468 150.832 187.839 150.506C187.606 151.693 187.349 152.74 187.256 153.904C186.461 162.074 185.666 170.244 184.872 178.413C184.825 179.856 184.475 181.206 183.985 182.579C183.566 183.51 182.844 184.348 182.076 184.906C181.168 185.488 180.05 185.674 179.003 185.417C177.979 185.3 177.025 184.741 176.327 183.996C175.629 183.251 175.164 182.18 175.141 181.179C175.189 178.014 175.376 174.825 175.703 171.613C176.522 162.721 177.48 153.807 178.345 144.334L175.272 144.845C166.542 148.449 157.44 150.68 148.082 151.374C140.307 152.093 132.37 151.833 124.689 150.527C123.06 150.224 121.454 150.06 119.546 149.803C118.241 153.178 118.216 156.483 117.749 159.718C115.859 172.52 115.295 185.531 114.568 198.426C114.521 199.869 114.311 201.196 113.821 202.569C113.542 203.477 112.959 204.291 112.051 204.873C111.143 205.454 110.305 205.593 109.281 205.477C108.28 205.499 107.21 205.103 106.512 204.358C105.674 203.636 105.232 202.705 105.07 201.727C104.93 200.889 104.768 199.912 104.908 199.027C105.426 184.014 106.805 169.001 108.93 154.152C109.303 152.08 109.397 150.055 109.491 148.03C109.421 147.611 109.352 147.192 108.979 146.68L108.77 147.145ZM154.115 141.042L156.35 140.67C157.048 140.554 158.142 140.229 158.957 139.95C172.505 136.836 184.588 130.952 194.229 120.738C201.727 113.176 206.55 103.332 207.671 92.8113C208.816 82.4304 206.19 71.8152 200.304 63.1772C194.163 53.8641 185.74 46.3657 175.756 41.5666C156.604 31.6896 134.422 29.4926 113.726 35.3732C100.131 39.0687 88.4902 45.884 79.2449 56.7504C74.8902 61.6368 71.6989 67.4779 69.8807 73.8084C68.0626 80.1389 67.734 86.7958 68.8021 93.2206C70.0792 100.902 73.1488 108.143 78.0112 114.08C90.9928 130.868 108.68 138.836 129.209 141.451C137.588 142.641 146.014 142.389 154.232 140.879L154.115 141.042ZM247.78 142.407C247.222 141.638 246.663 140.87 246.105 140.102C238.939 133.255 231.795 126.549 224.629 119.703C224.094 119.074 223.303 118.631 222.418 118.491C221.534 118.351 220.696 118.491 219.904 118.909C214.573 121.374 209.218 123.7 203.747 126.188C203.188 126.281 202.536 126.677 202.047 127.189C198.159 130.562 194.41 133.912 190.545 137.426C197.384 146.623 203.805 155.889 210.947 165.179L247.92 142.383L247.78 142.407ZM257.349 136.941C259.212 135.196 259.026 133.217 259.283 131.308C260.451 122.79 261.618 114.271 262.645 105.775C263.206 100.515 263.581 94.9986 264.002 89.7616C264.165 89.0168 264.026 88.1788 263.91 87.4805C262.376 81.7073 258.397 78.4934 252.904 76.536C250.461 75.6505 247.854 75.5098 245.363 76.0674C242.872 76.6251 240.521 78.0207 238.844 80.0218C237.26 81.7204 236.003 83.6518 235.21 85.7929C232.251 93.0307 231.247 100.805 229.522 108.555C229.358 109.3 229.474 109.998 229.707 110.534C229.823 111.232 230.335 111.721 230.987 112.187C236.245 117.054 241.504 121.921 246.785 126.927C250.345 130.211 253.905 133.494 257.349 136.941ZM201.568 48.3273C202.011 45.8136 202.314 44.1844 202.454 42.4387C202.782 38.3654 202.97 34.3154 202.995 30.1489C202.949 27.2858 202.788 24.5857 202.184 21.8155C201.719 19.0221 200.417 16.3681 198.369 14.412C192.226 8.54386 181.332 11.2163 178.466 18.1515C177.254 21.2235 176.345 24.3888 175.739 27.6473C175.156 30.1842 175.319 30.3006 177.529 31.5119C184.395 34.8199 190.864 39.1985 196.728 44.2519C198.077 45.4629 199.566 46.6506 201.451 48.4902L201.568 48.3273ZM111.659 25.5264C112.382 22.9663 112.22 20.2661 111.22 17.7053C110.243 15.2841 108.591 13.1187 106.451 11.4652C101.936 8.484 94.115 8.9231 89.4116 12.5756C84.6618 15.9488 81.3311 20.9519 79.9787 26.6309C78.9761 30.9599 78.4389 35.4986 77.7388 39.9209C77.7849 41.0614 77.9706 42.1788 78.2961 43.2729C88.2854 34.2922 99.3439 29.1526 111.519 25.5496L111.659 25.5264Z" fill="#102185"/>
</svg>

<svg xmlns="http://www.w3.org/2000/svg" width="274" height="210" fill="none" viewBox="0 0 274 210"><path fill="#102185" d="M79.482 162.635c-8.17-.794-16.061-.774-23.882-1.196-.7 2.699-.956 5.469-.934 8.193-.237 9.799-.497 19.459-.897 29.141-.07 2.165-.095 4.609-2.749 5.912s-5.354.603-6.377-2.098a10.7 10.7 0 0 1-.696-4.19c.307-11.103.754-22.229 1.037-33.471.094-1.164-.092-2.281-.184-3.701-5.493-1.097-11.033-.75-16.387-1.008l-16.06-.774c-1.328 2.373-.933 4.748-1.12 7.075-.563 9.567-1.125 19.133-1.525 28.816-.094 1.164-.187 2.328-.444 3.375a5.53 5.53 0 0 1-1.56 2.699c-.885.722-1.98 1.047-2.98 1.07-1.164-.094-2.235-.49-2.933-1.235-.837-.722-1.302-1.793-1.488-2.91s-.372-2.235-.278-3.399c.656-11.591 1.01-23.276 1.946-34.914.725-8.589.007-17.224 1.035-25.72 1.121-9.659 3.15-19.039 8.833-27.16 4.751-6.818 11.177-10.47 19.58-10.001 2.886.094 5.656.351 8.449.748 7.099 1.26 11.566 5.684 14.612 11.924 3.047 6.239 3.79 13.292 3.647 20.205-.003 6.029-.284 12.104-.45 18.016.163.978.186 1.979.371 3.096 2.747.118 5.377.398 7.984.539l17.737.496c4.608.095 6.377 2.097 6.026 6.892-.376 7.239-.914 14.361-1.313 21.46-.305 5.936-.493 11.708-.798 17.644-.047 1.443-.257 2.77-.747 4.143a4.16 4.16 0 0 1-1.77 2.303c-.768.559-1.746.721-2.747.744s-1.908-.257-2.746-.979c-.675-.605-1.256-1.513-1.419-2.491-.232-1.397-.464-2.793-.417-4.236.423-9.544 1.009-18.97 1.594-28.397.071-2.165.118-4.469.26-7.076zM47.457 151.31c.257-1.047.35-2.211.467-3.235.143-6.913.565-13.873.428-20.74.002-4.306-.835-8.473-2.486-12.36-1.86-4.284-4.908-7.078-9.843-7.406-1.303-.071-2.49-.304-3.794-.374-5.493-.235-9.916 1.648-12.711 6.419-1.422 2.676-2.82 5.492-3.938 8.261-3.192 8.425-3.312 17.201-3.409 26.115.116.699.21 1.257.605 1.909z"/><path fill="#102185" d="M108.77 147.145c-12.615-4.218-23.994-11.368-33.44-20.706-.28.908-.537 1.955-.793 3.002-.327 3.212-.515 6.401-.702 9.59-.094 1.164-.188 2.328-.42 3.515-.257 1.047-.956 2.024-1.701 2.722-.885.721-1.98 1.047-2.98 1.07-1.14.046-2.095-.513-2.932-1.235-.838-.722-1.303-1.793-1.466-2.771a17.6 17.6 0 0 1-.208-3.84c.655-7.286 1.31-14.571 1.825-21.833.024-1.583-.209-2.98-1.023-4.423a55.2 55.2 0 0 1-5.65-15.854c-1.579-7.775-1.366-15.991.802-23.672 1.328-4.957 3.402-9.751 5.964-14.196.582-.814.839-1.862.979-2.746.14-2.607.002-5.168.306-7.658.794-7.309 1.03-14.524 2.709-21.693 2.075-9.1 6.687-16.756 14.417-22.06 9.267-6.42 25.863-6.74 33.842 5.856 1.582 2.608 2.651 5.588 3.022 8.684l.743 4.469c1.327.21 2.607.14 3.888.071 8.007-1.044 16.201-.97 24.161.29 4.119.606 8.029 1.679 12.033 2.448 1.047.257 2.211.35 3.398.584.886-3.305 1.678-6.308 2.634-9.194C171.861 5.184 184.898-.14 195.045 2.19c3.119.63 6.075 2.005 8.704 4.008 2.63 2.002 4.491 4.564 5.84 7.497 3.605 7.008 3.858 14.573 3.249 22.137-.608 7.565-1.379 15.013-2.127 22.601a9.25 9.25 0 0 0 .79 4.749c2.698 5.005 4.581 10.29 5.51 15.877 1.579 9.497.783 19.39-2.596 28.419-.302.768-.629 1.397-.792 2.141.047.28.07.419-.023.722 4.562-.184 5.796-1.394 6.706-5.421 1.539-7.145 3.217-14.314 5.362-21.272 2.004-6.936 7.034-12.078 13.646-15.474 5.285-2.744 10.685-2.207 16.085-.808 4.352 1.142 8.331 3.495 11.705 6.522 5.259 4.867 6.886 11.2 6.883 18.089.043 8.03-1.683 15.781-2.663 23.694-.818 7.169-1.938 14.245-2.919 21.297.023 1.001-.233 2.049-.652 2.979-2.47 4.143-1.703 8.752-1.984 13.104-.26 7.938-.24 15.828-.476 23.905l-.285 13.826a11.8 11.8 0 0 1-.35 3.073 3.9 3.9 0 0 1-1.747 2.443c-.908.582-1.839 1.023-2.863.907-1.001.023-2.072-.374-2.77-1.119-.837-.722-1.279-1.653-1.442-2.631a129 129 0 0 1-.438-10.404c.167-10.219.334-20.437.618-30.818l-.511-3.073c-3.911 2.373-7.45 4.396-10.826 6.536-8.848 5.49-17.695 10.98-26.566 16.33-.931.442-1.816 1.163-2.375 2.117s-.955 2.025-.932 3.025c-.632 8.287-1.264 16.573-2.035 24.882l-.281 3.492c-.094 1.163-.629 2.257-1.514 2.978a5.48 5.48 0 0 1-3.236 1.256c-2.561.139-4.12-1.468-4.584-4.261-.162-.978-.046-2.002-.068-3.003.562-8.705 1.264-17.434 1.965-26.162.187-1.467-.231-3.119-1.022-4.423-5.165-6.892-10.19-13.807-15.238-20.862-.023-.14-.325-.233-.954-.559-.233 1.187-.49 2.234-.583 3.398l-2.384 24.509c-.047 1.443-.397 2.793-.887 4.166-.419.931-1.141 1.769-1.909 2.327a3.96 3.96 0 0 1-3.073.511c-1.024-.117-1.978-.676-2.676-1.421s-1.163-1.816-1.186-2.817q.072-4.748.562-9.566c.819-8.892 1.777-17.806 2.642-27.279l-3.073.511c-8.73 3.604-17.832 5.835-27.19 6.529-7.775.719-15.712.459-23.393-.847-1.629-.303-3.235-.467-5.143-.724-1.305 3.375-1.33 6.68-1.797 9.915-1.89 12.802-2.454 25.813-3.181 38.708-.047 1.443-.257 2.77-.747 4.143a4.16 4.16 0 0 1-1.77 2.304c-.908.581-1.746.72-2.77.604-1.001.022-2.071-.374-2.769-1.119-.838-.722-1.28-1.653-1.442-2.631-.14-.838-.302-1.815-.162-2.7.518-15.013 1.897-30.026 4.022-44.875.373-2.072.467-4.097.561-6.122-.07-.419-.139-.838-.512-1.35zm45.345-6.103 2.235-.372c.698-.116 1.792-.441 2.607-.72 13.548-3.114 25.631-8.998 35.272-19.212 7.498-7.562 12.321-17.406 13.442-27.927 1.145-10.38-1.481-20.996-7.367-29.634-6.141-9.313-14.564-16.811-24.548-21.61a84.78 84.78 0 0 0-62.03-6.194C100.131 39.07 88.49 45.884 79.245 56.75c-4.355 4.887-7.546 10.728-9.364 17.058s-2.147 12.988-1.079 19.413c1.277 7.681 4.347 14.922 9.21 20.859 12.98 16.788 30.668 24.756 51.197 27.371 8.379 1.19 16.805.938 25.023-.572zm93.665 1.365-1.675-2.305c-7.166-6.847-14.31-13.553-21.476-20.399-.535-.629-1.326-1.072-2.211-1.212q-1.326-.21-2.514.418c-5.331 2.465-10.686 4.791-16.157 7.279-.559.093-1.211.489-1.7 1.001a655 655 0 0 0-11.502 10.237c6.839 9.197 13.26 18.463 20.402 27.753l36.973-22.796zm9.569-5.466c1.863-1.745 1.677-3.724 1.934-5.633 1.168-8.518 2.335-17.037 3.362-25.533.561-5.26.936-10.776 1.357-16.013.163-.745.024-1.583-.092-2.281-1.534-5.774-5.513-8.988-11.006-10.945a13.46 13.46 0 0 0-7.541-.469c-2.491.558-4.842 1.954-6.519 3.955-1.584 1.698-2.841 3.63-3.634 5.77-2.959 7.239-3.963 15.013-5.688 22.763a3.24 3.24 0 0 0 .185 1.979c.116.698.628 1.187 1.28 1.653 5.258 4.867 10.517 9.734 15.798 14.74 3.56 3.284 7.12 6.567 10.564 10.014m-55.781-88.614c.443-2.513.746-4.143.886-5.888.328-4.074.516-8.124.541-12.29-.046-2.863-.207-5.563-.811-8.333-.465-2.794-1.767-5.448-3.815-7.404-6.143-5.868-17.037-3.196-19.903 3.74a51.4 51.4 0 0 0-2.727 9.495c-.583 2.537-.42 2.654 1.79 3.865 6.866 3.308 13.335 7.687 19.199 12.74 1.349 1.21 2.838 2.399 4.723 4.238zm-89.909-22.8c.723-2.56.561-5.26-.439-7.822-.977-2.42-2.629-4.586-4.769-6.24-4.515-2.981-12.336-2.542-17.04 1.11-4.75 3.374-8.08 8.377-9.432 14.056-1.003 4.329-1.54 8.868-2.24 13.29q.07 1.71.557 3.352c9.99-8.98 21.048-14.12 33.223-17.723z"/></svg>
